src/categories-icons-sprite/categories/svg-cat-electr-appliances.svg

<svg width="34" height="23" viewBox="0 0 34 23" fill="none" xmlns="http://www.w3.org/2000/svg">
<path class="p-03232E" d="M31.2392 19.8872H29.2871V23H31.2392V19.8872Z" fill="#4D98CB"/>
<path class="p-8EA8D4" d="M23.7119 2.8479L25.0143 20.8638H33.3152V4.15032L23.7119 2.8479Z" fill="#65B3E7"/>
<path class="p-07485E" d="M29.2262 7.3252H29.103C28.5639 7.3252 28.127 7.76218 28.127 8.30123C28.127 8.84028 28.5639 9.27726 29.103 9.27726H29.2262C29.7652 9.27726 30.2022 8.84028 30.2022 8.30123C30.2022 7.76218 29.7652 7.3252 29.2262 7.3252Z" fill="#4D98CB"/>
<path class="p-07485E" d="M29.2262 11.4753H29.103C28.5639 11.4753 28.127 11.9123 28.127 12.4514C28.127 12.9904 28.5639 13.4274 29.103 13.4274H29.2262C29.7652 13.4274 30.2022 12.9904 30.2022 12.4514C30.2022 11.9123 29.7652 11.4753 29.2262 11.4753Z" fill="#4D98CB"/>
<path class="p-07485E" d="M29.2262 15.6255H29.103C28.5639 15.6255 28.127 16.0625 28.127 16.6015C28.127 17.1406 28.5639 17.5776 29.103 17.5776H29.2262C29.7652 17.5776 30.2022 17.1406 30.2022 16.6015C30.2022 16.0625 29.7652 15.6255 29.2262 15.6255Z" fill="#4D98CB"/>
<path class="p-2682FF" d="M33.3152 0H25.0143L23.7119 4.15042H33.3152V0Z" fill="#4D98CB"/>
<path class="p-07485E" d="M4.02824 19.8872H2.07617V23H4.02824V19.8872Z" fill="#58ADE5"/>
<path class="p-EFE2DD" d="M25.014 0H16.6569L15.3545 10.432L16.6569 20.8639H25.014V0Z" fill="#A1D1FD"/>
<path class="p-FFF5F5" d="M16.6572 0H0V20.864H16.6572V0Z" fill="#B9DFFC"/>
<path class="p-03232E" d="M21.8437 5.17017C21.8437 4.0656 20.9483 3.17017 19.8437 3.17017H16.6569L15.3545 9.45504L16.6569 17.6935H19.8438C20.9483 17.6935 21.8437 16.798 21.8437 15.6935V5.17017Z" fill="#4D98CB"/>
<path class="p-07485E" d="M16.6568 3.17017H5.16992C4.06535 3.17017 3.16992 4.0656 3.16992 5.17017V15.6935C3.16992 16.798 4.06535 17.6935 5.16992 17.6935H16.6568V3.17017Z" fill="#58ADE5"/>
</svg>

<svg width="34" height="23" fill="none" xmlns="http://www.w3.org/2000/svg"><path class="p-03232E" d="M31.24 19.887h-1.953V23h1.952v-3.113z" fill="#4D98CB"/><path class="p-8EA8D4" d="M23.712 2.848l1.302 18.016h8.301V4.15l-9.603-1.302z" fill="#65B3E7"/><path class="p-07485E" d="M29.226 7.325h-.123a.976.976 0 100 1.952h.123a.976.976 0 000-1.952zM29.226 11.475h-.123a.976.976 0 100 1.952h.123a.976.976 0 000-1.952zM29.226 15.626h-.123a.976.976 0 100 1.952h.123a.976.976 0 000-1.952z" fill="#4D98CB"/><path class="p-2682FF" d="M33.315 0h-8.3l-1.303 4.15h9.603V0z" fill="#4D98CB"/><path class="p-07485E" d="M4.028 19.887H2.076V23h1.952v-3.113z" fill="#58ADE5"/><path class="p-EFE2DD" d="M25.014 0h-8.357l-1.303 10.432 1.303 10.432h8.357V0z" fill="#A1D1FD"/><path class="p-FFF5F5" d="M16.657 0H0v20.864h16.657V0z" fill="#B9DFFC"/><path class="p-03232E" d="M21.844 5.17a2 2 0 00-2-2h-3.187l-1.303 6.285 1.303 8.239h3.187a2 2 0 002-2V5.17z" fill="#4D98CB"/><path class="p-07485E" d="M16.657 3.17H5.17a2 2 0 00-2 2v10.524a2 2 0 002 2h11.487V3.17z" fill="#58ADE5"/></svg>
